X:319
T: Mary O
N: O'Farrell's Pocket Companion v.4 (Sky ed. p.141)
N: "Scotch"
M: 2/4
R: march
L: 1/8
Q: 180
K: Dm
A| d/c/d/e/ fe/f/| g/f/e/d/ d/c/B/A/| d>e g/f/e/d/ Add :|
z| AG/F/ cA| dA AG/F/| GA BA/G/| Add :|
